X:1
T:Quaeramus cum pastoribus
T:Quaeramus cum pastoribus
T:Jean Mouton
T:Edition Copyright © 2006 by Charles H. Giffen
T:Edition Copyright © 2006 by Charles H. Giffen
T:Edition Copyright © 2006 by Charles H. Giffen
T:Edition Copyright © 2006 by Charles H. Giffen
T:Edition Copyright © 2006 by Charles H. Giffen
T:Edition Copyright © 2006 by Charles H. Giffen
T:Edition Copyright © 2006 by Charles H. Giffen
T:Edition Copyright © 2006 by Charles H. Giffen
T:Edition Copyright © 2006 by Charles H. Giffen
T:Edition Copyright © 2006 by Charles H. Giffen
T:Edition Copyright © 2006 by Charles H. Giffen
T:Edition Copyright © 2006 by Charles H. Giffen
T:Edition Copyright © 2006 by Charles H. Giffen
T:Edition Copyright © 2006 by Charles H. Giffen
C:Jean Mouton
Z:Edition Copyright © 2006 by Charles H. Giffen
%%score [ 1 2 3 4 ]
L:1/8
Q:1/4=240
M:2/2
K:F
V:1 treble nm="Cantus"
V:2 treble nm="Contratenor"
V:3 treble-8 nm="Tenor"
V:4 bass nm="Bassus"
V:1
"^Prima Pars" z16 | z16 | c16 | c8 F8 | c12 c4 | B8 A8 | G8 z4 G4 | A6 B2 c8 | A8 G8 | %9
w: ||Quae-|ra- mus|cum pa-|sto- ri-|bus Ver-|bum in- car-|na- tum,|
 z4 A8 G2 F2 | G8 F4 f4- | f4 e2 d2 e8 | d8 c8 | z8 c8- | c4 B2 A2 G4 e4- | e2 d2 c8 B4 | %16
w: Ver- bum in|car- na- *||* tum;|can-|* te- * * *||
 A4 G2 F2 G4 A4- | A4 G4 A8 | z8 d8 | c4 A4 B8 | A4 c8 B2 A2 | G8 z4 F4 | G4 A8 =B4 | %23
w: |* * mus|cum|ho- * mi-|ni- bus _ _|_ re-|gem sae- *|
 c4 A6 G2 F4- | F4 E4 F6 G2 | A2 B2 A8 G2 F2 | E16 | z8 z4 F4 | F6 G2 A4 B4 | G16 | z8 z4 F4 | %31
w: cu- lo- * *|||rum.|No-|e, no- e, no-|e,|no-|
 F6 G2 A4 B4 | G16- | !fermata!G16 | z16 | z16 | z8 c8 | c4 d4 c6 c2 | c4 B4 A8 | d8 B8 | B8 A8- | %41
w: e, no- e, no-|e.|_|||Quod|tu vi- des in|sta- bu- lo?|Je- sum|na- tum,|
 A8 d8 | B8 B8 | A16 | z8 G8- | G4 F4 G8 | A8 z8 | c8 c4 d4 | c6 c2 c4 B4 | A8 c4 c4 | %50
w: _ Je-|sum na-|tum|de|_ Vir- gi-|ne.|Quod au- dis|in prae- se- pi-|o? An- ge-|
 d4 f4 e4 d2 c2 | B2 A2 d8 c4- | c4 B4 c8 | A4 G4 F8 | E16 | z16 | z16 | z16 | z16 | z16 | c16 | %61
w: los cum car- * *||* mi- ne,|cum car- mi-|ne||||||et|
 d8 e8 | c8 f8- | f4 e2 d2 e8 | d6 c2 B4 A4- | A4 G8 ^F4 | G16 | z8 z4 c4 | f8 e8 | c8 z4 c4 | %70
w: pa- sto-|res di-|* * * cen-|||tes:|No-|e, no-|e, no-|
 f8 e8 |[M:3/1] c4 e6 d2 c8 =B4 |[M:2/2] c16 |]"^Secunda Pars" c12 A4 | B8 A4 B4 | c8 d8 | c16 | %77
w: e, no-|e, no- e, no- *|e.|U- bi|pa- scas, u-|bi cu-|bes,|
 z4 e8 f4- | f4 e2 d2 c4 d4 | A8 z8 | c12 A4 | B8 A6 B2 | c8 d8 | c16 | z4 e8 f4- | %85
w: u- bi|_ _ _ _ cu-|bes?|Dic, si|plo- ras aut|si ri-|des,|aut si|
 f4 e2 d2 c4 d4 | A8 z8 | z16 | z8 A8- | A4 A4 A8 | G8 A8- | A4 A4 A8 | G6 A2 B2 c2 d4- | %93
w: _ ri- * * *|des:||Te|_ ro- ga-|mus, te|_ ro- ga-|mus, _ _ _ Rex|
 d4 c4 B4 A2 G2 | A16 | B8 G8 | z4 F4 F6 G2 | A4 B4 G4 c4- | c2 B2 A6 G2 F4- | F4 E4 F8- | F16- | %101
w: _ _ Chri- * *||* ste.|No- e, no-|e, no- e, no-|* * e, _ no-|* * e.|_|
 F8 z8 | z8 z4 A4 | A4 B4 c8 | c4 d4 e8 | c12 B2 A2 | B4 c4 A4 B4- | B4 A8 G4 | A8 z8 | z16 | z16 | %111
w: |Ci-|bus et lac|vir- * gi-|||* * ne-|um,|||
 z4 B4 A4 G4 | c6 c2 B6 A2 | G6 A2 B4 c4- | c4 _B4 c8 | z4 c4 f4 f4 | e6 d2 c8 | A6 A2 G4 B4 | %118
w: le- ctus du-|rum prae- se- *||* pi- um,|du- rum prae-|se- pi- um,|car- mi- na sunt|
 A4 G4 F4 c4 | c4 _B4 c8 | z16 | z16 | z8 A6 A2 | G4 B4 A4 G4 | F4 c4 c4 _B4 | c8 z8 | z8 z4 c4 | %127
w: la- cri- mae. No-|e, no- e,|||car- mi-|na sunt la- cri-|mae, no- e, no-|e,|no-|
 c6 d2 e4 f4 | d8 z4 c4 | c6 d2 e4 f4 | d8 z4 c4 | c6 B2 A4 G4- | G2 F2 F8 E4 | !fermata!F16 |] %134
w: e, no- e, no-|e, no-|e, no- e, no-|e, no-|e, no- e, no-|* * e, no-|e.|
V:2
 F16 | F8 C8 | F12 F4 | E8 D8 | C8 z4 C4 | D4 E4 F8 | E8 C8- | C8 z4 C4 | D8 E8 | F16 | z8 z4 A4- | %11
w: Quae-|ra- mus|cum pa-|sto- ri-|bus Ver-|bum in- car-|na- tum,|_ in-|car- na-|tum,|Ver-|
 A4 G2 F2 G8 | z4 F4 F8 | G8 E8 | z4 G4 G8 | C8 D8 | E12 F4- | F4 E4 D4 C4 | D8 z4 D4 | E4 F4 D8- | %20
w: * * * bum|in- car-|na- tum;|can- te-|mus cum|ho- min-|* * * ni-|bus, can-|te- mus cum|
 D4 C4 A,4 B,4 | C8 A,8 | z4 C4 D8 | E4 F4 D8 | C16 | z8 C8 | C8 z8 | z16 | z4 D4 D4 D4 | E16 | %30
w: _ ho- mi- *|ni- bus|re- gem|sae- cu- lo-|rum.|No-|e,||no- e, no-|e,|
 z16 | z4 D4 D4 D4 | E16- | !fermata!E16 | z16 | z16 | z8 F8 | E4 D4 F6 E2 | F4 G4 D8 | z8 D8- | %40
w: |no- e, no-|e.|_|||Quod|tu vi- des in|sta- bu- lo?|Je-|
 D4 B,4 C8 | D8 z8 | D12 B,4 | C8 D8 | G6 F2 E4 D4 | E4 C4 D6 E2 | F16- | F16 | z16 | z16 | z16 | %51
w: * sum- na-|tum,|Je- sum|na- tum|de _ _ Vir-|* gi- ne. _|_|||||
 z16 | z16 | z16 | G8 G4 A4 | G6 G2 G4 F4 | E8 F4 F4 | G4 B4 A4 G2 F2 | E2 D2 G8 F4- | F4 E4 F8 | %60
w: |||Quid au- dis|in prae- se- pi-|o? An- ge-|los cum car- * *||* mi- ne|
 z8 F8- | F8 G8 | A16 | F8 G8- | G4 D4 G4 F4 | G4 _E4 D8- | D2 C2 B,2 A,2 B,4 C4 | G,8 z8 | %68
w: et|_ pa-|sto-|res di-|* * cen- *|||tes:|
 z4 D4 G8 | E8 C8 | z4 D4 G8 |[M:3/1] E4 C4 E4 F4 G8 |[M:2/2] G16 |] z16 | z16 | F12 D4 | %76
w: No- e,|no- e,|no- e,|no- e, no- e, no-|e.|||U- bi|
 F8 E6 F2 | G8 A8 | F16 | z8 A8- | A4 A4 G4 F2 E2 | D2 C2 D4 C8 | F12 D4 | F8 E4 F4 | G8 A8 | F16 | %86
w: pa- scas, u-|bi cu-|bes,|u-|* bi cu- * *|* * * bes?|Dic, si|plo- ras, aut|si ri-|des,|
 z8 A8- | A4 A4 G4 F2 E2 | D2 C2 D4 C8 | F12 F4 | E8 C8 | F12 F4 | E8 D8 | z4 C4 D4 E4 | F16 | %95
w: aut|_ si ri- * *|* * * des:|Te ro-|ga- mus,|te ro-|ga- mus,|Rex Chri- *|ste.|
 z4 F4 E6 D2 | C4 C4 D8 | z4 F4 E6 F2 | G4 C8 =B,4 | C12 B,2 A,2 | C4 D4 A,8 | z8 z4 D4 | %102
w: No- e, no-|e, no- e,|no- e, no-|e, no- *|e, no- *|* * e.|Ci-|
 D4 E4 F8 | F4 G4 A8 | F8 z4 G4- | G4 A6 G2 F2 E2 | F4 G4 E4 F4 | E4 F8 E2 D2 | C8 z8 | z16 | %110
w: bus et lac|vir- gi- ne-|um, vir-|* gi- * * *||ne- um, _ _|_||
 z8 z4 F4 | E4 D4 E6 E2 | E4 F4 G6 F2 | E2 D2 E4 D4 C4 | D4 D4 E4 E4 | C8 z8 | z8 E6 E2 | %117
w: le-|ctus du- rum prae-|se- * * *|* * pi- um du-|rum, prae- se- pi-|um,|car- mi-|
 D4 F4 E4 D4 | C8 z8 | z8 E6 F2 | G4 F4 F4 E4 | F4 G4 E4 D4 | G8 z8 | z8 E6 E2 | D4 F4 E4 D4 | %125
w: na sunt la- cri-|mae,|car- mi-|na sunt la- cri-|mae. No- e, no-|e,|car- min-|na sunt la- cri-|
 C8 z4 D4 | C4 B,4 C8 | A8 G4 A4 | F6 G2 A8 | z4 A4 G4 A4 | F6 G2 A8- | A4 G4 F4 E4 | D8 C8 | %133
w: mae, no-|e, no- e,|no- e, no-|e, no- e,|no- e, no-|e, no- e,|_ no- e, no-|e, no-|
 !fermata!C16 |] %134
w: e.|
V:3
 z16 | z16 | z16 | z16 | z16 | z16 | z16 | z16 | z16 | c16 | c8 F8 | c12 c4 | B8 A8 | G8 z4 G4 | %14
w: |||||||||Quae-|ra- mus|cum pa-|sto- ri-|bus Ver-|
 A4 B4 c8 | A8 G8 | z16 | z8 f8- | f8 f8 | c8 z8 | f12 f4 | e8 d8 | c8 z4 F4 | G4 A8 B4 | G8 F8- | %25
w: bum in- car-|na- tum;||Can-|* te-|mus|cum ho-|mi- ni-|bus re-|gem sae- cu-|lo- rum.|
 F8 z8 | z8 z4 c4 | c4 c4 d8 | z16 | z8 z4 c4 | c4 c4 d8 | z16 | z8 c8 | !fermata!c16 | c8 c4 d4 | %35
w: _|No-|e, no- e,||no-|e, no- e,||no-|e.|Quod tu vi-|
 c6 c2 c4 B4 | A8 z8 | z16 | z8 f8- | f4 f4 f8 | d8 z8 | f12 f4 | f8 d8 | f16 | e8 c4 d4- | %45
w: des in sta- bu-|lo?||Je-|* sum na-|tum,|Je- sum|na- tum|de|Vir- * *|
 d4 c8 _B4 | c16 | z16 | f8 f4 g4 | f6 f2 f4 e4 | d8 c4 c4 | d4 f6 e2 d2 c2 | d4 c2 B2 A4 F2 G2 | %53
w: * * gi-|ne.||Quid au- dis|in prae- se- *|pi- o? An-|ge- los _ _ _|cum _ _ _ car- *|
 A2 B2 c8 =B4 | c16 | z16 | z16 | z16 | z16 | z16 | A8 A8- | A4 G2 F2 c8 | F6 G2 A2 B2 c4- | %63
w: * * * mi-|ne||||||et pa-|* * * sto-|res, _ _ _ et|
 c2 =BA B4 c4 G4 | _B6 c2 d8 | B4 c4 A8 | G16 | z4 c6 B2 A2 G2 | A4 =B4 c8 | z4 c6 B2 A2 G2 | %70
w: _ _ _ pa- sto- *|res _ _|di- * cen-|tes:|No- e, no- *|e, no- e,|no- e, no- *|
 A4 =B4 c8 |[M:3/1] G8 B4 c4 d8 |[M:2/2] c16 |] z16 | z16 | z16 | z16 | c12 A4 | B8 A4 B4 | c8 d8 | %80
w: e, no- e,|no- e, _ no-|e.|||||U- bi|pa- scas, u-|bi cu-|
 c16 | z16 | z16 | z16 | c12 A4 | B8 A4 B4 | c8 d8 | c12 A4 | B6 A2 F8 | c12 c4 | c8 A8 | c12 c4 | %92
w: bes?||||Dic, si|plo- ras, aut|si ri-||des: _ _|Te ro-|ga- mus,|te ro-|
 c8 B6 c2 | d2 e2 f8 e4 | d4 c4 d8- | d8 c8 | z4 A4 A6 B2 | c4 d4 c8- | c8 F8 | G8 F6 G2 | %100
w: ga- * *|* * * mus,|Rex _ Chri-|* ste.|No- e, no-|e, no- e,|_ no-|* e, no-|
 A4 B4 c8- | c4 d6 c2 A4 | B8 A8 | z8 z4 A4 | A4 B4 c6 d2 | e4 f6 e2 c4 | d4 e4 c4 d4 | c4 A4 B8 | %108
w: e, no- e,|_ no- e, no-|* e.|Ci-|bus et lac _|_ vir- * *|gi- * * *|* ne- um,|
 z4 A4 A4 B4 | c8 c4 d4 | e8 c8 | z16 | z16 | z16 | z4 B4 A4 G4 | A6 A2 A4 =B4 | c16 | z16 | %118
w: ci- bus et|lac vir- gi-|ne- um,||||le- ctus du-|rum prae- se- pi-|um,||
 e6 e2 d4 f4 | e4 d4 c8 | z4 d4 c4 B4 | c8 z8 | e6 e2 d4 f4 | e4 d4 c8 | z16 | e6 f2 g4 f4 | %126
w: car- mi- na sunt|la- cri- mae.|No- e, no-|e,|car- mi- na sunt|la- cri- mae,||car- mi- na sunt|
 f4 e4 f8 | z4 c4 c8 | d8 e8 | z4 c4 c8 | d8 e4 f4- | f4 e2 d2 c6 B2 | A4 B4 G8 | !fermata!F16 |] %134
w: la- cri- mae,|no- e,|no- e,|no- e,|no- e, no-|* e, _ no- e,|no- e, no-|e.|
V:4
 z16 | z16 | z16 | z16 | z16 | z16 | z16 | F,16 | F,8 C,8 | F,12 F,4 | E,8 D,8 | C,8 z4 C,4 | %12
w: |||||||Quae-|ra- mus|cum pa-|sto- ri-|bus Ver-|
 D,4 D,4 F,8 | E,8 C,8 | z16 | z16 | C16 | C8 F,8 | B,12 B,4 | A,8 G,8 | F,8 z8 | z4 C,4 D,8 | %22
w: bum in- car-|na- tum;|||Can-|te- mus|cum ho-|mi- ni-|bus|re- gem|
 E,4 F,4 D,8 | C,4 F,8 B,,4 | C,8 z8 | F,8 F,8 | z4 C,4 C,6 D,2 | E,4 F,4 D,8- | D,8 z8 | %29
w: sae- cu- lo-||rum.|No- e,|no- e, no-|e, no- e,|_|
 z4 C,4 C,6 D,2 | E,4 F,4 D,8- | D,8 z8 | C,8 C,8- | !fermata!C,16 | F,8 E,4 D,4 | %35
w: no- e, no-|e, no- e,|_|no- e.|_|Quod tu vi-|
 F,6 E,2 F,4 G,4 | D,8 z8 | z16 | z16 | B,12 B,4 | B,8 F,8 | z8 B,8- | B,4 B,4 B,8 | F,8 z8 | %44
w: des in sta- bu-|lo?|||Je- sum|na- tum,|Je-|* sum na-|tum|
 C12 =B,4 | C4 A,4 G,8 | F,16 | z16 | z16 | z16 | z16 | z8 F,8 | F,4 G,4 F,6 F,2 | F,4 E,4 D,8 | %54
w: de Vir-|* * gi-|ne.|||||Quid|au- dis in prae-|se- pi- o?|
 z16 | C8 C4 D4 | C6 C2 B,4 A,4 | G,8 F,4 F,4 | G,4 B,8 A,4 | G,8 F,8 | z4 F,4 F,8 | D,8 C,8 | %62
w: |Quid au- dis|in prae- se- pi-|o? An- ge-|los cum car-|min- ne|et pa-|sto- res,|
 z4 F,4 F,8 | D,8 C,8 | G,12 D,4 | _E,4 C,4 D,8 | G,8 z4 C,4 | C,6 D,2 E,4 F,4 | D,8 z4 C,4 | %69
w: et pa-|sto- res|di- cen-||tes: No-|e, no- e, no-|e, no-|
 C,6 D,2 E,4 F,4 | D,8 z4 C,4 |[M:3/1] C,8 G,4 A,4 G,8 |[M:2/2] C,16 |] z16 | z16 | z16 | z16 | %77
w: e, no- e, no-|e, no-|e, no- e, no-|e.|||||
 z16 | z16 | F,12 D,4 | F,8 E,4 F,4 | G,8 A,8 | F,8 z8 | z16 | z16 | z16 | F,12 D,4 | F,8 E,4 F,4 | %88
w: ||U- bi|pa- scas, u-|bi cu-|bes?||||Dic, si|plo- ras, aut|
 G,8 A,8 | F,16 | z8 F,8- | F,4 F,4 F,8 | C,8 G,6 A,2 | B,4 A,4 G,8 | F,8 z8 | B,,8 C,6 D,2 | %96
w: si ri-|des:|Te|_ ro- ga-|mus, Rex _|_ Chri- *|ste.|No- e, no-|
 E,4 F,4 D,8 | z4 B,,4 C,6 D,2 | E,4 F,4 D,8 | C,8 F,8 | z8 F,6 G,2 | A,4 B,6 A,2 G,2 F,2 | %102
w: e, no- e,|no- e, no-|e, no- *|* e,|no- e,|no- e, no- e, _|
 G,8 D,8 | z16 | z16 | z16 | z16 | z4 D,4 D,4 E,4 | F,8 F,4 G,4 | A,8 F,4 B,4 | A,4 G,4 A,6 A,2 | %111
w: no- e.|||||Ci- bus et|lac vir- bi-|ne- um, le-|ctus du- rum prae-|
 A,4 B,4 C8 | z8 z4 G,4 | C6 C2 B,4 A,4 | G,8 z4 C,4 | F,4 F,4 D,4 D,4 | C,8 z8 | z16 | z16 | %119
w: se- pi- um,|du-|rum prae- se- pi-|um, du-|rum prae- se- pi-|um,|||
 z8 A,6 A,2 | G,4 B,4 A,4 G,4 | F,4 C4 C4 =B,4 | C8 z8 | z16 | z16 | A,6 A,2 G,4 B,4 | %126
w: car- mi-|na sunt la- cri-|mae. No- e, no-|e,|||car- mi- na sunt|
 A,4 G,4 F,8- | F,8 z4 F,4 | B,8 A,8 | F,8 z4 F,4 | B,8 A,8 | F,12 C,4 | D,4 B,,4 C,8 | %133
w: la- cri- mae,|_ no-|e, no-|e, no-|e, no-|e, no-|e, no- *|
 !fermata!F,16 |] %134
w: e.|

